coreui/free/cil-strikethrough.svg

<svg xmlns="http://www.w3.org/2000/svg" viewBox="0 0 512 512">
  <path fill="var(--ci-primary-color, currentColor)" d="M16,496H496V16H16ZM48,48H464V464H48Z" class="ci-primary"/>
  <path fill="var(--ci-primary-color, currentColor)" d="M344.766,288H257.025l38.054,25.748a21.894,21.894,0,0,1,9.558,16.187,20.653,20.653,0,0,1-6.058,16.824C294.7,350.584,286.705,357,276.677,357h-104v54h104c21.722,0,42.972-9.165,59.835-25.808a74.638,74.638,0,0,0,21.9-60.218A75.831,75.831,0,0,0,344.766,288Z" class="ci-primary"/>
  <path fill="var(--ci-primary-color, currentColor)" d="M215.426,194.653c-12.195-8.251-9.725-20.755-8.677-24.389,1.269-4.4,5.647-14.643,18.964-15.248,6.468-.018,118.281,0,118.281,0l.012-54s-119.176-.006-119.795.015c-32.949,1.1-60.171,22.419-69.351,54.278-7.125,24.726-1.819,49.847,13.481,68.688H80v32H432V224H258.8Z" class="ci-primary"/>
</svg>

<svg viewBox="0 0 512 512" xmlns="http://www.w3.org/2000/svg"><g><path d="M16 496h480V16H16ZM48 48h416v416H48Z"/><path d="M344.76 288h-87.75l38.05 25.74v0c5.45 3.68 8.96 9.62 9.55 16.18v0c.63 6.23-1.59 12.42-6.06 16.82 -3.88 3.82-11.88 10.24-21.91 10.24h-104v54h104c21.72 0 42.97-9.17 59.83-25.81v0c15.98-15.76 24.02-37.88 21.9-60.22h-.001c-1.22-13.32-5.92-26.07-13.65-36.98Z"/><path d="M215.42 194.65c-12.2-8.26-9.73-20.76-8.68-24.39 1.26-4.4 5.64-14.65 18.964-15.25 6.46-.02 118.281 0 118.281 0l.01-54s-119.18-.01-119.8.01c-32.95 1.1-60.18 22.41-69.351 54.27 -7.125 24.726-1.82 49.84 13.48 68.68H79.97v32h352v-32h-173.2Z"/></g></svg>
